symbols/web/info/materialsymbolsoutlined/info_wght700gradN25_24px.svg

<svg xmlns="http://www.w3.org/2000/svg" height="24" width="24"><path d="M10.7 17.25h2.625v-6.225H10.7ZM12 9.6q.625 0 1.038-.412.412-.413.412-1.038t-.412-1.038Q12.625 6.7 12 6.7q-.6 0-1.025.412-.425.413-.425 1.038 0 .6.413 1.025.412.425 1.037.425Zm0 13q-2.225 0-4.15-.837-1.925-.838-3.35-2.263-1.425-1.425-2.262-3.35Q1.4 14.225 1.4 12q0-2.225.838-4.15Q3.075 5.925 4.5 4.5t3.35-2.263Q9.775 1.4 12 1.4q2.225 0 4.15.837 1.925.838 3.35 2.263 1.425 1.425 2.263 3.35.837 1.925.837 4.15 0 2.225-.837 4.15-.838 1.925-2.263 3.35-1.425 1.425-3.35 2.263-1.925.837-4.15.837Zm0-3.025q3.2 0 5.388-2.2 2.187-2.2 2.187-5.375 0-3.2-2.187-5.388Q15.2 4.425 12 4.425q-3.175 0-5.375 2.187Q4.425 8.8 4.425 12q0 3.175 2.2 5.375t5.375 2.2ZM12 12Z"/></svg>

<svg xmlns="http://www.w3.org/2000/svg" height="24" width="24"><path d="M10.7 17.25H13.325V11.025H10.7ZM12 9.6Q12.625 9.6 13.038 9.188Q13.45 8.775 13.45 8.15Q13.45 7.525 13.038 7.112Q12.625 6.7 12 6.7Q11.4 6.7 10.975 7.112Q10.55 7.525 10.55 8.15Q10.55 8.75 10.963 9.175Q11.375 9.6 12 9.6ZM12 22.6Q9.775 22.6 7.85 21.775Q5.925 20.95 4.488 19.512Q3.05 18.075 2.225 16.15Q1.4 14.225 1.4 12Q1.4 9.75 2.225 7.838Q3.05 5.925 4.488 4.487Q5.925 3.05 7.85 2.225Q9.775 1.4 12 1.4Q14.25 1.4 16.163 2.225Q18.075 3.05 19.513 4.487Q20.95 5.925 21.775 7.838Q22.6 9.75 22.6 12Q22.6 14.225 21.775 16.15Q20.95 18.075 19.513 19.512Q18.075 20.95 16.163 21.775Q14.25 22.6 12 22.6ZM12 12Q12 12 12 12Q12 12 12 12Q12 12 12 12Q12 12 12 12Q12 12 12 12Q12 12 12 12Q12 12 12 12Q12 12 12 12ZM12 19.575Q15.15 19.575 17.363 17.363Q19.575 15.15 19.575 12Q19.575 8.825 17.363 6.625Q15.15 4.425 12 4.425Q8.875 4.425 6.65 6.625Q4.425 8.825 4.425 12Q4.425 15.15 6.637 17.363Q8.85 19.575 12 19.575Z"/></svg>
